_inc/systems/logos/music.svg

<?xml version="1.0" encoding="utf-8"?>
<svg viewBox="0 0 200 40" xmlns="http://www.w3.org/2000/svg">
  <path d="M 14.201 29.375 L 8.261 29.375 L 12.641 10.625 L 20.081 10.625 L 20.621 20.165 L 20.831 20.165 L 24.731 10.625 L 32.171 10.625 L 29.951 29.375 L 23.981 29.375 L 25.241 20.285 L 25.031 20.285 L 21.281 29.375 L 16.931 29.375 L 16.301 20.285 L 16.151 20.285 L 14.201 29.375 Z M 41.709 10.625 L 39.219 24.695 L 41.259 24.695 C 41.959 24.695 42.459 24.6 42.759 24.41 C 43.059 24.22 43.269 23.785 43.389 23.105 L 45.609 10.625 L 51.309 10.625 L 49.449 21.155 C 49.149 22.855 48.804 24.225 48.414 25.265 C 48.024 26.305 47.479 27.185 46.779 27.905 C 46.079 28.625 45.214 29.125 44.184 29.405 C 43.154 29.685 41.849 29.825 40.269 29.825 C 37.849 29.825 36.154 29.46 35.184 28.73 C 34.214 28 33.729 26.745 33.729 24.965 C 33.729 23.985 33.869 22.715 34.149 21.155 L 36.009 10.625 L 41.709 10.625 Z M 50.8 29.045 L 52.48 24.095 C 54.16 24.555 55.7 24.785 57.1 24.785 C 58.5 24.785 59.63 24.725 60.49 24.605 L 60.73 23.105 L 58.24 22.865 C 56.34 22.685 54.995 22.255 54.205 21.575 C 53.415 20.895 53.02 19.935 53.02 18.695 C 53.02 18.155 53.08 17.555 53.2 16.895 C 53.66 14.335 54.495 12.575 55.705 11.615 C 56.915 10.655 58.79 10.175 61.33 10.175 C 63.87 10.175 66.11 10.425 68.05 10.925 L 66.49 15.725 C 64.75 15.425 63.35 15.275 62.29 15.275 C 61.23 15.275 60.33 15.325 59.59 15.425 L 59.35 16.895 L 61.36 17.105 C 63.4 17.325 64.85 17.81 65.71 18.56 C 66.57 19.31 67 20.315 67 21.575 C 67 22.855 66.72 24.175 66.16 25.535 C 65.88 26.235 65.575 26.82 65.245 27.29 C 64.915 27.76 64.495 28.16 63.985 28.49 C 63.475 28.82 63.01 29.07 62.59 29.24 C 62.17 29.41 61.64 29.535 61 29.615 C 60.06 29.755 58.91 29.825 57.55 29.825 C 55.07 29.825 52.82 29.565 50.8 29.045 Z M 68.35 29.375 L 71.65 10.625 L 77.35 10.625 L 74.05 29.375 L 68.35 29.375 Z M 90.489 24.005 L 90.009 29.045 C 88.729 29.565 87.109 29.825 85.149 29.825 C 82.629 29.825 80.824 29.335 79.734 28.355 C 78.644 27.375 78.099 25.865 78.099 23.825 C 78.099 22.965 78.239 21.695 78.519 20.015 C 79.119 16.575 80.154 14.075 81.624 12.515 C 83.094 10.955 85.419 10.175 88.599 10.175 C 89.339 10.175 90.184 10.25 91.134 10.4 C 92.084 10.55 92.779 10.735 93.219 10.955 L 91.539 15.545 C 90.359 15.265 89.254 15.125 88.224 15.125 C 87.194 15.125 86.459 15.225 86.019 15.425 C 85.579 15.625 85.309 16.025 85.209 16.625 L 83.829 24.485 C 84.549 24.645 85.289 24.725 86.049 24.725 C 87.669 24.725 89.149 24.485 90.489 24.005 Z M 108.789 24.845 L 105.069 24.845 L 104.289 29.375 L 98.589 29.375 L 101.889 10.625 L 110.889 10.625 C 114.289 10.625 115.989 12.205 115.989 15.365 C 115.989 16.865 115.779 18.22 115.359 19.43 C 114.939 20.64 114.474 21.6 113.964 22.31 C 113.454 23.02 112.754 23.62 111.864 24.11 C 110.974 24.6 109.949 24.845 108.789 24.845 Z M 106.719 15.425 L 105.909 20.045 L 107.229 20.045 C 107.909 20.045 108.424 19.97 108.774 19.82 C 109.124 19.67 109.349 19.325 109.449 18.785 C 109.709 17.305 109.839 16.495 109.839 16.355 C 109.839 15.975 109.689 15.725 109.389 15.605 C 109.089 15.485 108.639 15.425 108.039 15.425 L 106.719 15.425 Z M 127.18 29.375 L 115.78 29.375 L 119.08 10.625 L 124.78 10.625 L 122.32 24.575 L 128.02 24.575 L 127.18 29.375 Z M 131.318 29.375 L 125.318 29.375 L 133.208 10.625 L 142.028 10.625 L 143.348 29.375 L 137.318 29.375 L 137.198 26.405 L 132.488 26.405 L 131.318 29.375 Z M 136.448 16.385 L 134.348 21.635 L 136.748 21.635 L 136.748 16.385 L 136.448 16.385 Z M 150.939 10.625 L 151.329 17.225 L 151.539 17.225 L 154.299 10.625 L 160.599 10.625 L 153.039 24.275 L 152.169 29.375 L 146.469 29.375 L 147.339 24.275 L 144.639 10.625 L 150.939 10.625 Z M 171.038 22.295 L 165.338 22.295 L 164.948 24.575 L 171.938 24.575 L 171.098 29.375 L 158.408 29.375 L 161.708 10.625 L 174.248 10.625 L 172.688 15.425 L 166.538 15.425 L 166.118 17.945 L 171.818 17.945 L 171.038 22.295 Z M 189.849 29.375 L 183.579 29.375 L 182.199 23.795 L 180.969 23.795 L 180.009 29.375 L 174.309 29.375 L 177.609 10.625 L 186.609 10.625 C 190.029 10.625 191.739 12.155 191.739 15.215 C 191.739 16.475 191.549 17.675 191.169 18.815 C 190.469 20.975 189.369 22.415 187.869 23.135 L 189.849 29.375 Z M 182.439 15.425 L 181.779 19.175 L 183.099 19.175 C 183.779 19.175 184.294 19.1 184.644 18.95 C 184.994 18.8 185.234 18.37 185.364 17.66 C 185.494 16.95 185.559 16.515 185.559 16.355 C 185.559 15.955 185.404 15.7 185.094 15.59 C 184.784 15.48 184.279 15.425 183.579 15.425 L 182.439 15.425 Z" style="white-space: pre; fill: rgb(255, 255, 255); transform-box: fill-box; transform-origin: 50% 50%;"/>
  <path d="M 71.132 5.5 C 71.132 2.421 74.465 0.496 77.132 2.036 C 78.37 2.751 79.132 4.071 79.132 5.5 C 79.132 8.579 75.799 10.504 73.132 8.964 C 71.894 8.25 71.132 6.929 71.132 5.5 Z M 75.132 6 C 74.747 6 74.506 5.583 74.699 5.25 C 74.789 5.095 74.954 5 75.132 5 C 75.517 5 75.758 5.417 75.565 5.75 C 75.476 5.905 75.311 6 75.132 6 Z M 73.632 5.5 C 73.632 6.655 74.882 7.376 75.882 6.799 C 76.346 6.531 76.632 6.036 76.632 5.5 C 76.632 4.346 75.382 3.623 74.382 4.201 C 73.918 4.469 73.632 4.964 73.632 5.5 Z M 72.632 5.25 C 72.632 4.703 72.906 4.139 73.338 3.707 C 73.771 3.274 74.335 3 74.882 3 C 75.02 3 75.132 2.887 75.132 2.75 C 75.132 2.613 75.02 2.5 74.882 2.5 C 74.173 2.5 73.489 2.848 72.984 3.351 C 72.479 3.855 72.132 4.541 72.132 5.25 C 72.132 5.387 72.245 5.5 72.382 5.5 C 72.52 5.5 72.632 5.387 72.632 5.25 Z" style="fill: rgb(255, 255, 255); transform-box: fill-box; transform-origin: 50% 50%;"/>
</svg>

<svg xmlns="http://www.w3.org/2000/svg" viewBox="0 0 200 40"><path d="M14.2 29.38H8.26l4.38-18.75h7.44l.54 9.53h.21l3.9-9.53h7.44l-2.22 18.74h-5.97l1.26-9.09h-.2l-3.76 9.1h-4.35l-.63-9.1h-.15zm27.5-18.75L39.23 24.7h2.04q1.05 0 1.5-.29t.63-1.3l2.22-12.48h5.7l-1.86 10.53q-.45 2.55-1.04 4.1a8 8 0 0 1-1.63 2.64 5.6 5.6 0 0 1-2.6 1.5q-1.54.43-3.91.43-3.63 0-5.09-1.1-1.45-1.09-1.45-3.77 0-1.47.42-3.8L36 10.63zm9.1 18.42 1.68-4.96q2.52.7 4.62.7t3.39-.18l.24-1.5-2.49-.25q-2.85-.27-4.04-1.28a3.6 3.6 0 0 1-1.18-2.88q0-.81.18-1.8.7-3.84 2.5-5.28 1.82-1.44 5.63-1.44t6.72.75l-1.56 4.8q-2.61-.46-4.2-.46t-2.7.16l-.24 1.47 2.01.2q3.06.33 4.35 1.46A3.8 3.8 0 0 1 67 21.58q0 1.92-.84 3.96-.42 1.05-.91 1.75t-1.27 1.2q-.75.5-1.39.75-.63.26-1.59.38-1.41.2-3.45.2-3.72 0-6.75-.77m17.55.32 3.3-18.74h5.7l-3.3 18.74zM90.49 24 90 29.06q-1.92.78-4.86.77-3.78 0-5.42-1.46-1.63-1.48-1.63-4.53 0-1.29.42-3.81.9-5.16 3.1-7.5t6.98-2.34q1.1 0 2.53.22t2.09.55l-1.68 4.6a14 14 0 0 0-3.32-.43q-1.54 0-2.2.3t-.81 1.2l-1.38 7.86q1.08.25 2.22.25 2.43 0 4.44-.73m18.3.84h-3.72l-.78 4.54h-5.7l3.3-18.75h9q5.1 0 5.1 4.73a12.3 12.3 0 0 1-2.03 6.95 6.2 6.2 0 0 1-5.17 2.54m-2.07-9.41-.81 4.62h1.32q1.03 0 1.54-.23.53-.23.68-1.04.39-2.21.39-2.43 0-.57-.45-.75t-1.35-.17zm20.46 13.95h-11.4l3.3-18.75h5.7l-2.46 13.94h5.7zm4.14 0h-6l7.89-18.75h8.82l1.32 18.74h-6.03l-.12-2.96h-4.71zm5.13-13-2.1 5.26h2.4v-5.25zm14.49-5.75.39 6.6h.2l2.77-6.6h6.3l-7.56 13.64-.87 5.1h-5.7l.87-5.1-2.7-13.64zm20.1 11.67h-5.7l-.4 2.27h7l-.84 4.8h-12.7l3.3-18.74h12.55l-1.56 4.8h-6.15l-.42 2.52h5.7zm18.8 7.07h-6.26l-1.38-5.57h-1.23l-.96 5.57h-5.7l3.3-18.74h9q5.13 0 5.13 4.58 0 1.9-.57 3.6-1.05 3.25-3.3 4.33zm-7.4-13.94-.66 3.75h1.32q1.02 0 1.54-.23.53-.22.72-1.29.2-1.06.2-1.3 0-.6-.47-.77a5 5 0 0 0-1.51-.16z" style="white-space:pre;fill:#fff;transform-box:fill-box;transform-origin:50% 50%"/><path d="M71.13 5.5a4 4 0 1 1 8 0 4 4 0 0 1-8 0m4 .5a.5.5 0 1 1 0-1 .5.5 0 0 1 0 1m-1.5-.5a1.5 1.5 0 1 0 3 0 1.5 1.5 0 0 0-3 0m-1-.25c0-.55.28-1.11.7-1.54.44-.44 1-.71 1.55-.71.14 0 .25-.11.25-.25a.25.25 0 0 0-.25-.25c-.7 0-1.4.35-1.9.85s-.85 1.2-.85 1.9c0 .14.12.25.25.25.14 0 .25-.11.25-.25" style="fill:#fff;transform-box:fill-box;transform-origin:50% 50%"/></svg>
